src/22/actions/run-build.svg

<svg xmlns="http://www.w3.org/2000/svg" viewBox="0 0 22 22">
  <defs id="defs3051">
    <style type="text/css" id="current-color-scheme">
      .ColorScheme-Text {
        color:#5d656b;
      }
      </style>
  </defs>
 <path 
     style="fill:currentColor;fill-opacity:1;stroke:none" 
     d="M 11 3 C 10.32479 3.004 9.65279 3.092995 9 3.265625 L 9 4.2988281 L 9 4.3105469 A 7 7 0 0 0 7.6835938 4.8554688 L 7.6757812 4.8476562 L 6.9433594 4.1152344 C 5.7764094 4.8032844 4.8032844 5.7764094 4.1152344 6.9433594 L 4.6367188 7.4648438 L 4.8554688 7.6835938 A 7 7 0 0 0 4.3085938 9 L 4.2949219 9 L 3.2597656 9 C 3.0891456 9.65304 3.00187 10.32505 3 11 C 3.004 11.67521 3.093005 12.34721 3.265625 13 L 4.2988281 13 L 4.3105469 13 A 7 7 0 0 0 4.8554688 14.316406 L 4.6367188 14.535156 L 4.1152344 15.056641 C 4.8032844 16.223601 5.7763994 17.196716 6.9433594 17.884766 L 7.4648438 17.363281 L 7.6835938 17.144531 A 7 7 0 0 0 9 17.691406 L 9 18 L 9 18.740234 C 9.65304 18.910854 10.32504 18.99813 11 19 C 11.67496 18.99813 12.34696 18.910854 13 18.740234 L 13 18 L 13 17.691406 A 7 7 0 0 0 14.316406 17.144531 L 14.535156 17.363281 L 15.056641 17.884766 C 16.223601 17.196716 17.196716 16.223601 17.884766 15.056641 L 17.363281 14.535156 L 17.144531 14.316406 A 7 7 0 0 0 17.689453 13 L 17.701172 13 L 18.734375 13 C 18.907005 12.34721 18.996 11.67521 19 11 C 18.99813 10.32505 18.910854 9.65304 18.740234 9 L 17.705078 9 L 17.691406 9 A 7 7 0 0 0 17.144531 7.6835938 L 17.363281 7.4648438 L 17.884766 6.9433594 C 17.196716 5.7764094 16.223591 4.8032844 15.056641 4.1152344 L 14.324219 4.8476562 L 14.316406 4.8554688 A 7 7 0 0 0 13 4.3105469 L 13 4.2988281 L 13 3.265625 C 12.34721 3.092995 11.67521 3.004 11 3 z M 11 4 C 11.33491 4.0012 11.66956 4.0273719 12 4.0761719 L 12 4.0800781 L 12 5 L 12 5.0859375 A 6 6 0 0 1 14.470703 6.1152344 L 14.535156 6.0507812 L 15.185547 5.4003906 L 15.1875 5.3984375 C 15.72484 5.7991075 16.201446 6.2742469 16.603516 6.8105469 L 16.599609 6.8144531 L 15.949219 7.4648438 L 15.886719 7.5273438 A 6 6 0 0 1 16.910156 10 L 17 10 L 17.921875 10 L 17.925781 10 C 17.974081 10.33106 17.9995 10.66455 18 11 C 17.9988 11.33491 17.972628 11.66955 17.923828 12 L 17.919922 12 L 17 12 L 16.914062 12 A 6 6 0 0 1 15.884766 14.470703 L 15.949219 14.535156 L 16.599609 15.185547 L 16.601562 15.1875 C 16.200893 15.72484 15.725753 16.201456 15.189453 16.603516 L 15.185547 16.599609 L 14.535156 15.949219 L 14.472656 15.886719 A 6 6 0 0 1 12 16.910156 L 12 17 L 12 17.921875 L 12 17.925781 C 11.66894 17.974081 11.33545 17.9995 11 18 C 10.66455 17.9995 10.33106 17.974081 10 17.925781 L 10 17.921875 L 10 17 L 10 16.910156 A 6 6 0 0 1 7.5273438 15.886719 L 7.4648438 15.949219 L 6.8144531 16.599609 L 6.8105469 16.603516 C 6.2742469 16.201456 5.7991075 15.72484 5.3984375 15.1875 L 5.4003906 15.185547 L 6.0507812 14.535156 L 6.1152344 14.470703 A 6 6 0 0 1 5.0859375 12 L 5 12 L 4.0800781 12 L 4.0761719 12 C 4.0273719 11.66955 4.0012 11.33491 4 11 C 4.0005 10.66455 4.0259187 10.33106 4.0742188 10 L 4.078125 10 L 5 10 L 5.0898438 10 A 6 6 0 0 1 6.1132812 7.5273438 L 6.0507812 7.4648438 L 5.4003906 6.8144531 L 5.3964844 6.8105469 C 5.7985544 6.2742469 6.27516 5.7991075 6.8125 5.3984375 L 6.8144531 5.4003906 L 7.4648438 6.0507812 L 7.5292969 6.1152344 A 6 6 0 0 1 10 5.0859375 L 10 5 L 10 4.0800781 L 10 4.0761719 C 10.33044 4.0273719 10.66509 4.0012 11 4 z M 9 8 L 9 14 L 14 11 L 9 8 z "
     class="ColorScheme-Text"
     />
</svg>

<svg xmlns="http://www.w3.org/2000/svg" viewBox="0 0 22 22"><path d="M11 3a8.008 8.008 0 0 0-2 .266V4.31a7 7 0 0 0-1.316.544l-.008-.007-.733-.733a8 8 0 0 0-2.828 2.828l.522.522.218.219A7 7 0 0 0 4.31 9H3.26A8 8 0 0 0 3 11c.004.675.093 1.347.266 2H4.31a7 7 0 0 0 .544 1.316l-.218.22-.522.52a8 8 0 0 0 2.828 2.829l.522-.522.219-.218A7 7 0 0 0 9 17.69v1.049a8 8 0 0 0 2 .26 8 8 0 0 0 2-.26v-1.049a7 7 0 0 0 1.316-.546l.22.218.52.522a8 8 0 0 0 2.829-2.828l-.522-.522-.218-.219A7 7 0 0 0 17.689 13h1.045A8.008 8.008 0 0 0 19 11a8 8 0 0 0-.26-2h-1.049a7 7 0 0 0-.546-1.316l.218-.22.522-.52a8 8 0 0 0-2.828-2.829l-.733.733-.008.007A7 7 0 0 0 13 4.311V3.266A8.008 8.008 0 0 0 11 3zm0 1c.335.001.67.027 1 .076v1.01a6 6 0 0 1 2.47 1.03l.065-.065.65-.65.002-.003c.538.401 1.014.876 1.417 1.413l-.004.003-.65.65-.063.063A6 6 0 0 1 16.91 10h1.016c.048.331.074.665.074 1-.001.335-.027.67-.076 1h-1.01a6 6 0 0 1-1.03 2.47l.065.065.65.65.003.002a6.995 6.995 0 0 1-1.413 1.417l-.003-.004-.65-.65-.063-.063A6 6 0 0 1 12 16.91v1.016A6.993 6.993 0 0 1 11 18c-.335 0-.669-.026-1-.074V16.91a6 6 0 0 1-2.473-1.023l-.062.062-.65.65-.004.005a6.995 6.995 0 0 1-1.413-1.416l.002-.002.65-.65.065-.065A6 6 0 0 1 5.085 12H4.077A7.023 7.023 0 0 1 4 11c0-.335.026-.669.074-1H5.09a6 6 0 0 1 1.023-2.473l-.062-.062-.65-.65-.005-.004a6.995 6.995 0 0 1 1.417-1.413l.001.002.65.65.065.065A6 6 0 0 1 10 5.085V4.077c.33-.049.665-.075 1-.076zM9 8v6l5-3-5-3z" fill="currentColor" color="#5d656b"/></svg>
